X: 1255
T: Tear the Calico
M:C|
L:1/8
R:Reel
B:O'Neill's 1255
N:Collected by Cronin
Z:Transcribed by Trish O'Neil
K:G
GE (3EEE (cA)BG|AGEGA2(BA|G)EEE cABG|AFGED2D2|
G>E (3EEE (cABG)|AGEG A2 (Bc)|dBcA BGAF|GEDEG2G2||
BddB cABG|AGEGA2(Ac)|BddB cABG|AFGED2D2|
BddB cABG|AGEGA2A2|BddB cABG|AGABc2(BA)||
G2(BG)G2(BG)|AGEG AcBA|G2(BG)G2(BG)|AFGED2D2|
G2(BG)G2(BG)|AGEG AcBA|dBcA BGAF|GEDEG2G2||


